X: 1
T: Good Ship Kangaroo, The
M: 4/4
L: 1/8
R: reel
K: Dmaj
|:G3B AG FA  G | ~G2F ED E/F/G | A2 AB =cB  AF | G2 GF GA B=c |
d2 d=c B=c  dB| =c2 AB ~B2G AD| ~D2 =c BA  FG-| GG FG AB GA  |
D~D2  A  ~A2  |B =c2 B  AF G2 | GF GA  B=c d2 | d=c B=c dB GA|
B=c de dB  =c2| AB   B~B2  GA | D ~D2=c  B AF | G2:|
